symbols/web/volcano/materialsymbolsoutlined/volcano_wght100grad200fill1_24px.svg

<svg xmlns="http://www.w3.org/2000/svg" height="24" width="24"><path d="m3.5 21.525 3.15-7.05h3l2-5h5.625l3.425 12.05Zm10.575-16.1v-3.35h1.35v3.35Zm4.7 1.975-.925-.925 2.35-2.35.975.925Zm-8.05 0-2.35-2.35.925-.975 2.35 2.4Z"/></svg>

<svg xmlns="http://www.w3.org/2000/svg" height="24" width="24"><path d="M3.5 21.525 6.65 14.475H9.65L11.65 9.475H17.275L20.7 21.525ZM14.075 5.425V2.075H15.425V5.425ZM18.775 7.4 17.85 6.475 20.2 4.125 21.175 5.05ZM10.725 7.4 8.375 5.05 9.3 4.075 11.65 6.475Z"/></svg>
